X: 21212
T: The LAIRD O' COCKPEN
%R: jig
B: "Edinburgh Repository of Music" v.2 p.121 #2
F: http://digital.nls.uk/special-collections-of-printed-music/pageturner.cfm?id=87776133
Z: 2015 John Chambers <jc:trillian.mit.edu>
M: 6/8
L: 1/8
K: Am
E |\
A>BA c2c | B>GG G2B | A>BA a2a | gee e2e/f/ |\
gcg g>fe | d>ec B2E | A>BA e<ed | c<AA A2z |]

%%sep 2 1 500
%%sep 1 1 500

